public/sheesh/22.svg

<svg fill="none" height="82" viewBox="0 0 85 82" width="85" xmlns="http://www.w3.org/2000/svg" xmlns:xlink="http://www.w3.org/1999/xlink"><filter id="a" color-interpolation-filters="sRGB" filterUnits="userSpaceOnUse" height="15.3796" width="15.4645" x="34.2878" y="2.4694"><feFlood flood-opacity="0" result="BackgroundImageFix"/><feBlend in="SourceGraphic" in2="BackgroundImageFix" mode="normal" result="shape"/><feGaussianBlur result="effect1_foregroundBlur_415_12488" stdDeviation="1.00846"/></filter><filter id="b" color-interpolation-filters="sRGB" filterUnits="userSpaceOnUse" height="55.2638" width="54.8662" x="15.3037" y="12.9081"><feFlood flood-opacity="0" result="BackgroundImageFix"/><feBlend in="SourceGraphic" in2="BackgroundImageFix" mode="normal" result="shape"/><feColorMatrix in="SourceAlpha" result="hardAlpha" type="matrix" values="0 0 0 0 0 0 0 0 0 0 0 0 0 0 0 0 0 0 127 0"/><feOffset dy="-.80677"/><feGaussianBlur stdDeviation=".80677"/><feComposite in2="hardAlpha" k2="-1" k3="1" operator="arithmetic"/><feColorMatrix type="matrix" values="0 0 0 0 0 0 0 0 0 0.172667 0 0 0 0 0.616667 0 0 0 0.15 0"/><feBlend in2="shape" mode="normal" result="effect1_innerShadow_415_12488"/></filter><filter id="c" color-interpolation-filters="sRGB" filterUnits="userSpaceOnUse" height="46.9944" width="45.7217" x="19.876" y="17.4452"><feFlood flood-opacity="0" result="BackgroundImageFix"/><feBlend in="SourceGraphic" in2="BackgroundImageFix" mode="normal" result="shape"/><feColorMatrix in="SourceAlpha" result="hardAlpha" type="matrix" values="0 0 0 0 0 0 0 0 0 0 0 0 0 0 0 0 0 0 127 0"/><feOffset dy=".80677"/><feGaussianBlur stdDeviation="2.01693"/><feComposite in2="hardAlpha" k2="-1" k3="1" operator="arithmetic"/><feColorMatrix type="matrix" values="0 0 0 0 0.4875 0 0 0 0 0.1755 0 0 0 0 0 0 0 0 1 0"/><feBlend in2="shape" mode="normal" result="effect1_innerShadow_415_12488"/><feColorMatrix in="SourceAlpha" result="hardAlpha" type="matrix" values="0 0 0 0 0 0 0 0 0 0 0 0 0 0 0 0 0 0 127 0"/><feOffset dy="-.80677"/><feGaussianBlur stdDeviation="2.01693"/><feComposite in2="hardAlpha" k2="-1" k3="1" operator="arithmetic"/><feColorMatrix type="matrix" values="0 0 0 0 1 0 0 0 0 0.716167 0 0 0 0 0.454167 0 0 0 1 0"/><feBlend in2="effect1_innerShadow_415_12488" mode="normal" result="effect2_innerShadow_415_12488"/></filter><filter id="d" color-interpolation-filters="sRGB" filterUnits="userSpaceOnUse" height="29.5044" width="33.6421" x="25.8816" y="26.5233"><feFlood flood-opacity="0" result="BackgroundImageFix"/><feColorMatrix in="SourceAlpha" result="hardAlpha" type="matrix" values="0 0 0 0 0 0 0 0 0 0 0 0 0 0 0 0 0 0 127 0"/><feOffset dy=".80677"/><feGaussianBlur stdDeviation=".80677"/><feComposite in2="hardAlpha" operator="out"/><feColorMatrix type="matrix" values="0 0 0 0 0.6 0 0 0 0 0.361709 0 0 0 0 0.19 0 0 0 1 0"/><feBlend in2="BackgroundImageFix" mode="normal" result="effect1_dropShadow_415_12488"/><feBlend in="SourceGraphic" in2="effect1_dropShadow_415_12488" mode="normal" result="shape"/></filter><filter id="e" color-interpolation-filters="sRGB" filterUnits="userSpaceOnUse" height="24.3445" width="11.5086" x="42.5299" y="31.025"><feFlood flood-opacity="0" result="BackgroundImageFix"/><feBlend in="SourceGraphic" in2="BackgroundImageFix" mode="normal" result="shape"/><feGaussianBlur result="effect1_foregroundBlur_415_12488" stdDeviation="1.21016"/></filter><linearGradient id="f"><stop offset=".488759" stop-color="#ffc786"/><stop offset=".488859" stop-color="#d1e5ee"/><stop offset=".488959" stop-color="#d18e5c"/></linearGradient><linearGradient id="g" gradientUnits="userSpaceOnUse" x1="37.2792" x2="47.4295" xlink:href="#f" y1="6.53002" y2="6.53002"/><linearGradient id="h" gradientUnits="userSpaceOnUse" x1="47.4307" x2="37.2805" xlink:href="#f" y1="76.1126" y2="76.1126"/><linearGradient id="i" gradientUnits="userSpaceOnUse" x1="75.2502" x2="70.2319" xlink:href="#f" y1="54.3546" y2="63.112"/><linearGradient id="j" gradientUnits="userSpaceOnUse" x1="9.46072" x2="14.4791" xlink:href="#f" y1="28.286" y2="19.5287"/><linearGradient id="k" gradientUnits="userSpaceOnUse" x1="70.175" x2="75.1933" xlink:href="#f" y1="19.5624" y2="28.3197"/><linearGradient id="l" gradientUnits="userSpaceOnUse" x1="14.5369" x2="9.51859" xlink:href="#f" y1="63.0782" y2="54.3209"/><linearGradient id="m" gradientUnits="userSpaceOnUse" x1="22.7087" x2="64.0208" y1="17.883" y2="64.3081"><stop offset="0" stop-color="#ffc887"/><stop offset=".520833" stop-color="#ffe7cb"/><stop offset="1" stop-color="#b45612"/></linearGradient><linearGradient id="n" gradientUnits="userSpaceOnUse" x1="42.7363" x2="42.7363" y1="9.93164" y2="71.9521"><stop offset="0" stop-color="#fff" stop-opacity=".5"/><stop offset="1" stop-color="#fff" stop-opacity="0"/></linearGradient><linearGradient id="o" gradientUnits="userSpaceOnUse" x1="25.2101" x2="59.9528" y1="20.1438" y2="62.3765"><stop offset="0" stop-color="#d28e5d"/><stop offset="1" stop-color="#ffc887"/></linearGradient><linearGradient id="p" gradientUnits="userSpaceOnUse" x1="27.6083" x2="46.202" y1="22.2561" y2="63.7372"><stop offset="0" stop-color="#ffcd92"/><stop offset=".484375" stop-color="#d88335"/><stop offset="1" stop-color="#9c5a2a"/></linearGradient><linearGradient id="q" gradientUnits="userSpaceOnUse" x1="29.4635" x2="38.6939" y1="38.213" y2="44.9764"><stop offset="0" stop-color="#ffdbb0"/><stop offset="1" stop-color="#d4905f"/></linearGradient><linearGradient id="r" gradientUnits="userSpaceOnUse" x1="55.05" x2="49.4907" y1="36.2595" y2="46.3413"><stop offset="0" stop-color="#ffdbaf"/><stop offset="1" stop-color="#d28e5d"/></linearGradient><linearGradient id="s" gradientUnits="userSpaceOnUse" x1="37.8808" x2="47.7358" y1="40.4716" y2="40.4716"><stop offset=".49728" stop-color="#ffc886"/><stop offset=".49738" stop-color="#d28e5d"/></linearGradient><linearGradient id="t" gradientUnits="userSpaceOnUse" x1="37.8808" x2="47.7358" y1="40.4716" y2="40.4716"><stop offset=".416667" stop-color="#b1b0d8"/><stop offset=".49738" stop-color="#ffcc1d"/></linearGradient><linearGradient id="u"><stop offset="0" stop-color="#ffe5c7"/><stop offset="1" stop-color="#d28e5d"/></linearGradient><linearGradient id="v" gradientUnits="userSpaceOnUse" x1="42.7403" x2="42.7403" xlink:href="#u" y1="27.3301" y2="30.8003"/><linearGradient id="w" gradientUnits="userSpaceOnUse" x1="28.9254" x2="28.9254" xlink:href="#u" y1="32.6914" y2="35.5306"/><linearGradient id="x" gradientUnits="userSpaceOnUse" x1="56.4801" x2="56.4801" xlink:href="#u" y1="32.6914" y2="35.5306"/><linearGradient id="y" gradientUnits="userSpaceOnUse" x1="34.0755" x2="51.4622" y1="52.4305" y2="52.4305"><stop offset="0" stop-color="#ffc886"/><stop offset="1" stop-color="#d28e5d"/></linearGradient><mask id="z" height="18" maskUnits="userSpaceOnUse" width="19" x="33" y="32"><path d="m41.652 32.705c.4425-.9042 1.7313-.9042 2.1739 0l7.5567 15.4386c.3935.804-.1918 1.7422-1.087 1.7422h-15.1134c-.8951 0-1.4805-.9382-1.0869-1.7422z" fill="url(#t)"/></mask><path d="m42.3544.857422 12.2088 14.181478h-24.4177z" fill="url(#g)"/><path d="m42.3556 81.7852-12.2088-14.1816 24.4176.0001z" fill="url(#h)"/><g filter="url(#a)"><path d="m42.0199 4.48633 1.4144 4.2687 4.3008 1.40387-4.3008 1.4039-1.4144 4.2687-1.4144-4.2687-4.3008-1.4039 4.3008-1.40387z" fill="#fff" fill-opacity=".62"/><path d="m42.0199 4.61458 1.3761 4.15314.0065.01934.0193.00632 4.1833 1.36552-4.1833 1.3656-.0193.0063-.0065.0193-1.3761 4.1532-1.3762-4.1532-.0064-.0193-.0193-.0063-4.1833-1.3656 4.1833-1.36552.0193-.00632.0064-.01934z" stroke="#ffc886" stroke-width=".080677"/></g><path d="m77.6622 61.5533-18.4782 3.4036 12.2088-20.9886z" fill="url(#i)"/><path d="m7.04876 21.0873 18.47824-3.4036-12.2089 20.9887z" fill="url(#j)"/><path d="m77.662 21.0885-6.2694 17.5851-12.2088-20.9887z" fill="url(#k)"/><path d="m7.04988 61.5521 6.26942-17.585 12.2088 20.9886z" fill="url(#l)"/><path d="m73.7778 40.9419c0 17.0136-13.8963 30.8085-31.0415 30.8085-17.1451 0-31.0414-13.7949-31.0414-30.8085 0-17.0137 13.8963-30.8086 31.0414-30.8086 17.1452 0 31.0415 13.7949 31.0415 30.8086z" fill="url(#m)" stroke="url(#n)" stroke-width=".403385"/><g filter="url(#b)"><ellipse cx="42.7367" cy="40.9433" fill="url(#o)" rx="27.433" ry="27.2285"/></g><g filter="url(#c)"><ellipse cx="42.7368" cy="40.9424" fill="url(#p)" rx="22.8608" ry="22.6904"/></g><g filter="url(#d)"><path d="m29.2365 37.0679c-.4067-1.0926.8149-2.0719 1.7929-1.4373l18.2931 11.8718c1.0109.656.5463 2.2253-.6588 2.2253h-13.8739c-.5055 0-.9578-.3143-1.1342-.788z" fill="url(#q)"/><path d="m56.2322 37.0533c.4109-1.09-.8045-2.0743-1.7853-1.4458l-18.5579 11.8911c-1.0177.6521-.5558 2.2291.6529 2.2291h14.0748c.5036 0 .9547-.312 1.1323-.7833z" fill="url(#r)"/><path d="m41.652 32.705c.4425-.9042 1.7313-.9042 2.1739 0l7.5567 15.4386c.3935.804-.1918 1.7422-1.087 1.7422h-15.1134c-.8951 0-1.4805-.9382-1.0869-1.7422z" fill="url(#s)"/><g mask="url(#z)"><g filter="url(#e)"><ellipse cx="9.94621" cy="2.69926" fill="#eca26c" rx="9.94621" ry="2.69926" transform="matrix(.204188 .978932 -.979534 .201279 48.8975 32.918)"/></g></g><ellipse cx="42.7403" cy="29.0652" fill="url(#v)" rx="1.74812" ry="1.73509"/><ellipse cx="28.9254" cy="34.111" fill="url(#w)" rx="1.43028" ry="1.41962"/><ellipse cx="56.4801" cy="34.111" fill="url(#x)" rx="1.43028" ry="1.41962"/><rect fill="url(#y)" height="2.35324" rx="1.17662" width="17.3867" x="33.8779" y="51.2539"/></g><g fill="#fff"><path d="m30.5429 21.2773.5658 1.7075 1.7203.5616-1.7203.5615-.5658 1.7075-.5658-1.7075-1.7203-.5615 1.7203-.5616z"/><path d="m23.6848 13.7148 1.3201 3.9842 4.0141 1.3103-4.0141 1.3103-1.3201 3.9841-1.3202-3.9841-4.014-1.3103 4.014-1.3103z"/></g></svg>

<svg width="85" height="82" viewBox="0 0 85 82" fill="none" xmlns="http://www.w3.org/2000/svg">
<path d="M42.3544 0.857422L54.5632 15.0389H30.1455L42.3544 0.857422Z" fill="url(#paint0_linear_415_12488)"/>
<path d="M42.3556 81.7852L30.1468 67.6036L54.5644 67.6037L42.3556 81.7852Z" fill="url(#paint1_linear_415_12488)"/>
<g filter="url(#filter0_f_415_12488)">
<path d="M42.0199 4.48633L43.4343 8.75503L47.7351 10.1589L43.4343 11.5628L42.0199 15.8315L40.6055 11.5628L36.3047 10.1589L40.6055 8.75503L42.0199 4.48633Z" fill="white" fill-opacity="0.62"/>
<path d="M42.0199 4.61458L43.396 8.76772L43.4025 8.78706L43.4218 8.79338L47.6051 10.1589L43.4218 11.5245L43.4025 11.5308L43.396 11.5501L42.0199 15.7033L40.6437 11.5501L40.6373 11.5308L40.618 11.5245L36.4347 10.1589L40.618 8.79338L40.6373 8.78706L40.6437 8.76772L42.0199 4.61458Z" stroke="#FFC886" stroke-width="0.080677"/>
</g>
<path d="M77.6622 61.5533L59.184 64.9569L71.3928 43.9683L77.6622 61.5533Z" fill="url(#paint2_linear_415_12488)"/>
<path d="M7.04876 21.0873L25.527 17.6837L13.3181 38.6724L7.04876 21.0873Z" fill="url(#paint3_linear_415_12488)"/>
<path d="M77.662 21.0885L71.3926 38.6736L59.1838 17.6849L77.662 21.0885Z" fill="url(#paint4_linear_415_12488)"/>
<path d="M7.04988 61.5521L13.3193 43.9671L25.5281 64.9557L7.04988 61.5521Z" fill="url(#paint5_linear_415_12488)"/>
<path d="M73.7778 40.9419C73.7778 57.9555 59.8815 71.7504 42.7363 71.7504C25.5912 71.7504 11.6949 57.9555 11.6949 40.9419C11.6949 23.9282 25.5912 10.1333 42.7363 10.1333C59.8815 10.1333 73.7778 23.9282 73.7778 40.9419Z" fill="url(#paint6_linear_415_12488)" stroke="url(#paint7_linear_415_12488)" stroke-width="0.403385"/>
<g filter="url(#filter1_i_415_12488)">
<ellipse cx="42.7367" cy="40.9433" rx="27.433" ry="27.2285" fill="url(#paint8_linear_415_12488)"/>
</g>
<g filter="url(#filter2_ii_415_12488)">
<ellipse cx="42.7368" cy="40.9424" rx="22.8608" ry="22.6904" fill="url(#paint9_linear_415_12488)"/>
</g>
<g filter="url(#filter3_d_415_12488)">
<path d="M29.2365 37.0679C28.8298 35.9753 30.0514 34.996 31.0294 35.6306L49.3225 47.5024C50.3334 48.1584 49.8688 49.7277 48.6637 49.7277H34.7898C34.2843 49.7277 33.832 49.4134 33.6556 48.9397L29.2365 37.0679Z" fill="url(#paint10_linear_415_12488)"/>
<path d="M56.2322 37.0533C56.6431 35.9633 55.4277 34.979 54.4469 35.6075L35.889 47.4986C34.8713 48.1507 35.3332 49.7277 36.5419 49.7277H50.6167C51.1203 49.7277 51.5714 49.4157 51.749 48.9444L56.2322 37.0533Z" fill="url(#paint11_linear_415_12488)"/>
<path d="M41.652 32.705C42.0945 31.8008 43.3833 31.8008 43.8259 32.705L51.3826 48.1436C51.7761 48.9476 51.1908 49.8858 50.2956 49.8858H35.1822C34.2871 49.8858 33.7017 48.9476 34.0953 48.1436L41.652 32.705Z" fill="url(#paint12_linear_415_12488)"/>
<mask id="mask0_415_12488" style="mask-type:alpha" maskUnits="userSpaceOnUse" x="33" y="32" width="19" height="18">
<path d="M41.652 32.705C42.0945 31.8008 43.3833 31.8008 43.8259 32.705L51.3826 48.1436C51.7761 48.9476 51.1908 49.8858 50.2956 49.8858H35.1822C34.2871 49.8858 33.7017 48.9476 34.0953 48.1436L41.652 32.705Z" fill="url(#paint13_linear_415_12488)"/>
</mask>
<g mask="url(#mask0_415_12488)">
<g filter="url(#filter4_f_415_12488)">
<ellipse cx="9.94621" cy="2.69926" rx="9.94621" ry="2.69926" transform="matrix(0.204188 0.978932 -0.979534 0.201279 48.8975 32.918)" fill="#ECA26C"/>
</g>
</g>
<ellipse cx="42.7403" cy="29.0652" rx="1.74812" ry="1.73509" fill="url(#paint14_linear_415_12488)"/>
<ellipse cx="28.9254" cy="34.111" rx="1.43028" ry="1.41962" fill="url(#paint15_linear_415_12488)"/>
<ellipse cx="56.4801" cy="34.111" rx="1.43028" ry="1.41962" fill="url(#paint16_linear_415_12488)"/>
<rect x="33.8779" y="51.2539" width="17.3867" height="2.35324" rx="1.17662" fill="url(#paint17_linear_415_12488)"/>
</g>
<path d="M30.5429 21.2773L31.1087 22.9848L32.829 23.5464L31.1087 24.1079L30.5429 25.8154L29.9771 24.1079L28.2568 23.5464L29.9771 22.9848L30.5429 21.2773Z" fill="white"/>
<path d="M23.6848 13.7148L25.0049 17.699L29.019 19.0093L25.0049 20.3196L23.6848 24.3037L22.3646 20.3196L18.3506 19.0093L22.3646 17.699L23.6848 13.7148Z" fill="white"/>
<defs>
<filter id="filter0_f_415_12488" x="34.2878" y="2.4694" width="15.4645" height="15.3796" filterUnits="userSpaceOnUse" color-interpolation-filters="sRGB">
<feFlood flood-opacity="0" result="BackgroundImageFix"/>
<feBlend mode="normal" in="SourceGraphic" in2="BackgroundImageFix" result="shape"/>
<feGaussianBlur stdDeviation="1.00846" result="effect1_foregroundBlur_415_12488"/>
</filter>
<filter id="filter1_i_415_12488" x="15.3037" y="12.9081" width="54.8662" height="55.2638" filterUnits="userSpaceOnUse" color-interpolation-filters="sRGB">
<feFlood flood-opacity="0" result="BackgroundImageFix"/>
<feBlend mode="normal" in="SourceGraphic" in2="BackgroundImageFix" result="shape"/>
<feColorMatrix in="SourceAlpha" type="matrix" values="0 0 0 0 0 0 0 0 0 0 0 0 0 0 0 0 0 0 127 0" result="hardAlpha"/>
<feOffset dy="-0.80677"/>
<feGaussianBlur stdDeviation="0.80677"/>
<feComposite in2="hardAlpha" operator="arithmetic" k2="-1" k3="1"/>
<feColorMatrix type="matrix" values="0 0 0 0 0 0 0 0 0 0.172667 0 0 0 0 0.616667 0 0 0 0.15 0"/>
<feBlend mode="normal" in2="shape" result="effect1_innerShadow_415_12488"/>
</filter>
<filter id="filter2_ii_415_12488" x="19.876" y="17.4452" width="45.7217" height="46.9944" filterUnits="userSpaceOnUse" color-interpolation-filters="sRGB">
<feFlood flood-opacity="0" result="BackgroundImageFix"/>
<feBlend mode="normal" in="SourceGraphic" in2="BackgroundImageFix" result="shape"/>
<feColorMatrix in="SourceAlpha" type="matrix" values="0 0 0 0 0 0 0 0 0 0 0 0 0 0 0 0 0 0 127 0" result="hardAlpha"/>
<feOffset dy="0.80677"/>
<feGaussianBlur stdDeviation="2.01693"/>
<feComposite in2="hardAlpha" operator="arithmetic" k2="-1" k3="1"/>
<feColorMatrix type="matrix" values="0 0 0 0 0.4875 0 0 0 0 0.1755 0 0 0 0 0 0 0 0 1 0"/>
<feBlend mode="normal" in2="shape" result="effect1_innerShadow_415_12488"/>
<feColorMatrix in="SourceAlpha" type="matrix" values="0 0 0 0 0 0 0 0 0 0 0 0 0 0 0 0 0 0 127 0" result="hardAlpha"/>
<feOffset dy="-0.80677"/>
<feGaussianBlur stdDeviation="2.01693"/>
<feComposite in2="hardAlpha" operator="arithmetic" k2="-1" k3="1"/>
<feColorMatrix type="matrix" values="0 0 0 0 1 0 0 0 0 0.716167 0 0 0 0 0.454167 0 0 0 1 0"/>
<feBlend mode="normal" in2="effect1_innerShadow_415_12488" result="effect2_innerShadow_415_12488"/>
</filter>
<filter id="filter3_d_415_12488" x="25.8816" y="26.5233" width="33.6421" height="29.5044" filterUnits="userSpaceOnUse" color-interpolation-filters="sRGB">
<feFlood flood-opacity="0" result="BackgroundImageFix"/>
<feColorMatrix in="SourceAlpha" type="matrix" values="0 0 0 0 0 0 0 0 0 0 0 0 0 0 0 0 0 0 127 0" result="hardAlpha"/>
<feOffset dy="0.80677"/>
<feGaussianBlur stdDeviation="0.80677"/>
<feComposite in2="hardAlpha" operator="out"/>
<feColorMatrix type="matrix" values="0 0 0 0 0.6 0 0 0 0 0.361709 0 0 0 0 0.19 0 0 0 1 0"/>
<feBlend mode="normal" in2="BackgroundImageFix" result="effect1_dropShadow_415_12488"/>
<feBlend mode="normal" in="SourceGraphic" in2="effect1_dropShadow_415_12488" result="shape"/>
</filter>
<filter id="filter4_f_415_12488" x="42.5299" y="31.025" width="11.5086" height="24.3445" filterUnits="userSpaceOnUse" color-interpolation-filters="sRGB">
<feFlood flood-opacity="0" result="BackgroundImageFix"/>
<feBlend mode="normal" in="SourceGraphic" in2="BackgroundImageFix" result="shape"/>
<feGaussianBlur stdDeviation="1.21016" result="effect1_foregroundBlur_415_12488"/>
</filter>
<linearGradient id="paint0_linear_415_12488" x1="37.2792" y1="6.53002" x2="47.4295" y2="6.53002" gradientUnits="userSpaceOnUse">
<stop offset="0.488759" stop-color="#FFC786"/>
<stop offset="0.488859" stop-color="#D1E5EE"/>
<stop offset="0.488959" stop-color="#D18E5C"/>
</linearGradient>
<linearGradient id="paint1_linear_415_12488" x1="47.4307" y1="76.1126" x2="37.2805" y2="76.1126" gradientUnits="userSpaceOnUse">
<stop offset="0.488759" stop-color="#FFC786"/>
<stop offset="0.488859" stop-color="#D1E5EE"/>
<stop offset="0.488959" stop-color="#D18E5C"/>
</linearGradient>
<linearGradient id="paint2_linear_415_12488" x1="75.2502" y1="54.3546" x2="70.2319" y2="63.112" gradientUnits="userSpaceOnUse">
<stop offset="0.488759" stop-color="#FFC786"/>
<stop offset="0.488859" stop-color="#D1E5EE"/>
<stop offset="0.488959" stop-color="#D18E5C"/>
</linearGradient>
<linearGradient id="paint3_linear_415_12488" x1="9.46072" y1="28.286" x2="14.4791" y2="19.5287" gradientUnits="userSpaceOnUse">
<stop offset="0.488759" stop-color="#FFC786"/>
<stop offset="0.488859" stop-color="#D1E5EE"/>
<stop offset="0.488959" stop-color="#D18E5C"/>
</linearGradient>
<linearGradient id="paint4_linear_415_12488" x1="70.175" y1="19.5624" x2="75.1933" y2="28.3197" gradientUnits="userSpaceOnUse">
<stop offset="0.488759" stop-color="#FFC786"/>
<stop offset="0.488859" stop-color="#D1E5EE"/>
<stop offset="0.488959" stop-color="#D18E5C"/>
</linearGradient>
<linearGradient id="paint5_linear_415_12488" x1="14.5369" y1="63.0782" x2="9.51859" y2="54.3209" gradientUnits="userSpaceOnUse">
<stop offset="0.488759" stop-color="#FFC786"/>
<stop offset="0.488859" stop-color="#D1E5EE"/>
<stop offset="0.488959" stop-color="#D18E5C"/>
</linearGradient>
<linearGradient id="paint6_linear_415_12488" x1="22.7087" y1="17.883" x2="64.0208" y2="64.3081" gradientUnits="userSpaceOnUse">
<stop stop-color="#FFC887"/>
<stop offset="0.520833" stop-color="#FFE7CB"/>
<stop offset="1" stop-color="#B45612"/>
</linearGradient>
<linearGradient id="paint7_linear_415_12488" x1="42.7363" y1="9.93164" x2="42.7363" y2="71.9521" gradientUnits="userSpaceOnUse">
<stop stop-color="white" stop-opacity="0.5"/>
<stop offset="1" stop-color="white" stop-opacity="0"/>
</linearGradient>
<linearGradient id="paint8_linear_415_12488" x1="25.2101" y1="20.1438" x2="59.9528" y2="62.3765" gradientUnits="userSpaceOnUse">
<stop stop-color="#D28E5D"/>
<stop offset="1" stop-color="#FFC887"/>
</linearGradient>
<linearGradient id="paint9_linear_415_12488" x1="27.6083" y1="22.2561" x2="46.202" y2="63.7372" gradientUnits="userSpaceOnUse">
<stop stop-color="#FFCD92"/>
<stop offset="0.484375" stop-color="#D88335"/>
<stop offset="1" stop-color="#9C5A2A"/>
</linearGradient>
<linearGradient id="paint10_linear_415_12488" x1="29.4635" y1="38.213" x2="38.6939" y2="44.9764" gradientUnits="userSpaceOnUse">
<stop stop-color="#FFDBB0"/>
<stop offset="1" stop-color="#D4905F"/>
</linearGradient>
<linearGradient id="paint11_linear_415_12488" x1="55.05" y1="36.2595" x2="49.4907" y2="46.3413" gradientUnits="userSpaceOnUse">
<stop stop-color="#FFDBAF"/>
<stop offset="1" stop-color="#D28E5D"/>
</linearGradient>
<linearGradient id="paint12_linear_415_12488" x1="37.8808" y1="40.4716" x2="47.7358" y2="40.4716" gradientUnits="userSpaceOnUse">
<stop offset="0.49728" stop-color="#FFC886"/>
<stop offset="0.49738" stop-color="#D28E5D"/>
</linearGradient>
<linearGradient id="paint13_linear_415_12488" x1="37.8808" y1="40.4716" x2="47.7358" y2="40.4716" gradientUnits="userSpaceOnUse">
<stop offset="0.416667" stop-color="#B1B0D8"/>
<stop offset="0.49738" stop-color="#FFCC1D"/>
</linearGradient>
<linearGradient id="paint14_linear_415_12488" x1="42.7403" y1="27.3301" x2="42.7403" y2="30.8003" gradientUnits="userSpaceOnUse">
<stop stop-color="#FFE5C7"/>
<stop offset="1" stop-color="#D28E5D"/>
</linearGradient>
<linearGradient id="paint15_linear_415_12488" x1="28.9254" y1="32.6914" x2="28.9254" y2="35.5306" gradientUnits="userSpaceOnUse">
<stop stop-color="#FFE5C7"/>
<stop offset="1" stop-color="#D28E5D"/>
</linearGradient>
<linearGradient id="paint16_linear_415_12488" x1="56.4801" y1="32.6914" x2="56.4801" y2="35.5306" gradientUnits="userSpaceOnUse">
<stop stop-color="#FFE5C7"/>
<stop offset="1" stop-color="#D28E5D"/>
</linearGradient>
<linearGradient id="paint17_linear_415_12488" x1="34.0755" y1="52.4305" x2="51.4622" y2="52.4305" gradientUnits="userSpaceOnUse">
<stop stop-color="#FFC886"/>
<stop offset="1" stop-color="#D28E5D"/>
</linearGradient>
</defs>
</svg>
